ui/client/assets/img/toolbarButtons/JSON.svg

<svg xmlns="http://www.w3.org/2000/svg" viewBox="0 0 36 36"><g data-name="Layer 2"><path d="M7.77 5.7h13.06l7.48 7.48v4.26H26v-1.76h-7.67V8.05h-8.22V28H17l.29 2.35H7.77zm12.91 3.08v4.55h4.55zM21.27 28h5.28L26 30.35h-4.15zm4.11-10h2.34s1.76 0 1.76 2.93v1.76s0 1.76 2.35 1.76v1.76c-2.35 0-2.35 1.76-2.35 1.76v1.76c0 2.94-1.76 2.94-1.76 2.94h-2.34v-1.73h1.17c1.17 0 1.17-1.76 1.17-1.76v-2.06a1.72 1.72 0 011.76-1.76 1.72 1.72 0 01-1.76-1.76v-2.05s0-1.76-1.17-1.76h-1.17zm-2.94 0v1.76h-1.17c-1.18 0-1.18 1.76-1.18 1.76v2.08a1.72 1.72 0 01-1.76 1.76 1.72 1.72 0 011.76 1.76v2.06s0 1.76 1.18 1.76h1.17v1.76h-2.35s-1.76 0-1.76-2.94V28s0-1.76-2.35-1.76v-1.76c2.35 0 2.35-1.76 2.35-1.76V21c0-3 1.76-3 1.76-3z" fill="#b3b3b3" data-name="aplikacja główna"/></g></svg>

<svg xmlns="http://www.w3.org/2000/svg" viewBox="0 0 36 36"><defs><style>.cls-1{fill:none;}.cls-2{fill:#b3b3b3;}</style></defs><title>JSON</title><g id="Layer_2" data-name="Layer 2"><g id="aplikacja_główna" data-name="aplikacja główna"><rect class="cls-1" width="36" height="36"/><path class="cls-2" d="M7.77,5.7H20.83l7.48,7.48v4.26H26V15.68H18.33V8.05H10.11V28H17l.29,2.35H7.77ZM20.68,8.78v4.55h4.55ZM21.27,28h5.28L26,30.35H21.85Zm4.11-10h2.34s1.76,0,1.76,2.93v1.76s0,1.76,2.35,1.76v1.76c-2.35,0-2.35,1.76-2.35,1.76v1.76c0,2.94-1.76,2.94-1.76,2.94H25.38V30.94h1.17c1.17,0,1.17-1.76,1.17-1.76V27.12a1.72,1.72,0,0,1,1.76-1.76,1.72,1.72,0,0,1-1.76-1.76V21.55s0-1.76-1.17-1.76H25.38Zm-2.94,0v1.76H21.27c-1.18,0-1.18,1.76-1.18,1.76V23.6a1.72,1.72,0,0,1-1.76,1.76,1.72,1.72,0,0,1,1.76,1.76v2.06s0,1.76,1.18,1.76h1.17V32.7H20.09s-1.76,0-1.76-2.94V28s0-1.76-2.35-1.76V24.48c2.35,0,2.35-1.76,2.35-1.76V21C18.33,18,20.09,18,20.09,18Z"/></g></g></svg>
